X:1
T:ບຸບຜາລາກ່ອນ
T:ເນື້ອຮ້ອງ & ທຳນອງ : ຈອມຄຳ ນັກຮ້ອງຕົ້ນສະບັບ : ກ. ວິເສດ
T:1970
T:© studiodavong
T:© studiodavong
C:Chomkham
Z:© studiodavong
%%score ( 1 2 )
L:1/8
Q:1/4=84
M:4/4
K:B
V:1 treble nm="Piano" snm="Pno."
V:2 treble 
V:1
"_(Guitar Hawaiien) ___________________________________________________________________________________" D2 F2[Q:1/4=29] !arpeggio!!fermata![B,DFBd]4 || %1
w: |
w: |
w: |
[Q:1/4=84]"^Country Swing" z DE^E FEFd |"B" d3 =d ^d4- | d=d^de d2 c2 | B3 d F4- | %5
w: ||||
w: ||||
w: ||||
"________________________________________________________________________________________" FDE^E FEFc | %6
w: |
w: |
w: |
"F#" c3 ^B c4- | cAcA GFGA |"B""E" B8 ||"B""^A" z B,B,D FdcA |"B7" B6 BA |"E" G3 A"F#" BcAG | %12
w: |||ທັ້ງ ໆ ທີ່ ໃຈ ນ້ອງ ກໍ ວ່າ|ຮັກ ຮັບ ສ|ມັກ ຮ່ວມ ຮັກ ມອບ ໃຈ ເປັນ|
w: ||||||
w: ||||||
"D#m" F4- FGAG |"G#" A3 G FGEF |"B" D4 B,CDE |"F#" F3 G A^EF=E |"B""E" D8 |:"B""^B" z B,B,D FdcB | %18
w: ທັມ _ ແຕ່ ດ້ວຍ ເຫດ|ໃດ ຂວັນ ໃຈ ຈຶ່ງ ມາ ສ້າງ|ກັມ ປ່ອຍ ໃຫ້ ອ້າຍ ຊອກ|ຊໍ້າ ຣະ ກັມ ຂື່ນ ຂົມ ດວງ|ໃຈ|ອ້າຍ ກໍ ຍັງ ເຄີຍ ໄດ້ ເອີ່ຍ ວາ|
w: ||||||
w: ||||||
"B7" B6 BA |"E" G3 A"F#" BcAG |"D#m" F4- FGAG |"G#" A3 G FEFE |"B" D3 C B,(FD)E |"F#" F3 G AFdc | %24
w: ຈາ ວ່າ ຈະ|ມາ ບູ ຊາ ສູ່ ຂໍ ນ້ອງ|ໄປ _ ນ້ອງ ຍິ້ມ ຈຸມ|ຈີ ຍິນ ດີ ຕອບ ອ້າຍ ພໍ|ໃຈ ວັນ ນຶ່ງ ອ້າຍ- * ຈຳ|ໄດ້ ສັນ ໃດ ໜໍ ລືມ ອ້າຍ|
w: ||||||
w: ||||||
"B""E" B8 ||"B""^C" z2 B2"B7" B2 A2 |"E" G3 B"F#" cBAG |"D#m" F4- FGAG |"G#" A3 G FGEF | %29
w: ລົງ|ມີ ອຸ ປ|ສັກ ສິ່ງ ໃດ ໃຜ ເດ ສ້າງ|ມາ _ ຫຼື ຜູ່ ໃຫຍ່|ຫາ ເຣື່ອງ ມາ ແຍກ ທາງ ຮັກ|
w: |||||
w: |||||
"B" D6 (3(FD)E | F2 DE"F#" F A2 G | F3 c d3 c |"E" B2 BG"F#" AGAD |"B""E" F8 || %34
w: ລົງ ນ້ອງ- * ຄົນ|ດີ ບໍ່ ປຣາ ນີ ອ້າຍ ກໍ|ຄົງ ຄວນ ຄິດ ພະ|ວົງ ທີ່ ໄດ້ ຫຼົງ ສ້າງ ຮັກ ຂຶ້ນ|ມາ|
w: |||||
w: |||||
"B""^D" z B,B,D Fdcd |"B7" B6 BA |"E" G3 A"F#" BcAG |"D#m" F4- FGAG |"G#" A3 G FGEF |"B" D4 B,CDE | %40
w: ບຸບ ຜາ ຈອມ ໃຈ ນ້ອງ ຊ່າງ ເສີຍ|ເມີຍ ບໍ່ ນຶກ|ເລີຍ ກ່ອນ ເຄີຍ ຮ່ວມ ຮັກ ສັນ|ຍາ _ ຫຼື ວ່າ ໃຈ|ນ້ອງ ໝາຍ ປອງ ລວງ ໃຫ້ ໂສ|ກາ ບໍ່ ນຶກ ກະ ຣຸ|
w: ||||||
w: ||||||
 F3 c"F#" cBdc!dacoda! ||1"B""E""_(Solo verse B)" B8 :|2O"B""E""^E" B8 ||"B" !arpeggio![B,FBd]8- | %44
w: ນາ ຈຳ ລາ ບຸບ ຜາ ຈອມ|ໃຈ...|||
w: ||||
w: ||ໃຈ...||
 [B,FBd]2 z2 z4!fine! |] %45
w: |
w: |
w: |
V:2
 x8 || x8 | x8 | x8 | x8 | x8 | x8 | x8 | x8 || x8 | x8 | x8 | x8 | x8 | x8 | x8 | x8 |: x8 | x8 | %19
 x8 | x8 | x8 | x8 | x8 | x8 || x8 | x8 | x8 | x8 | x8 | x8 | x8 | x8 | x8 || x8 | x8 | x8 | x8 | %38
 x8 | x8 | x8 ||1 x8 :|2 x4 [EGBe]4 || x8 | x8 |] %45

